X: 28
T:Mwynder Corwen
T:The Gentle Maid of Corwen
M:2/4
L:1/16
Q:130
C:Trad
R:Polka
A:Wales
Z:brian_martin12345@yahoo.com
K:G
d2|g2g2 gagf|e2c2 c2e2|d4 dedc|B2G2 B2d2|
c2B2 A2G2|F2G2 A2c2|B2G2 A2F2|G4G2:||!
d2|g4 gagf|e2f2 g2e2|a2g2 f2e2|d2e2 f2d2|
g3a g2f2|e2f2 g2e2|!d2g2 c2e2|d2B2 G2B2|
c3d e2c2|B2d2 G2B2|A2c2 F2A2|G4G2:||
